X:1817
T:Bourree
C:Simon Wascher
Z:abc transcription Simon Wascher
N:please mail errors to: simon.wascher@chello.at
M:2/4
L:1/8
K:Gmixo
A3/2G/2 A/2G/2A/2B/2|cB AG|A3/2G/2 A/2G/2A/2B/2|cd2B|
A3/2G/2 A/2G/2A/2B/2|cB AG|A3/2G/2 A/2G/2A/2B/2|c3B:|
|:d/2c/2d/2e/2 f/2e/2f/2g/2|fe dc|d/2c/2d/2e/2 f/2e/2f/2g/2|f2 e2|
d/2c/2d/2e/2 f/2e/2f/2g/2|fe dc|d/2c/2d/2e/2 f/2e/2f/2g/2|g/2f/2e/2d/2 c/2B/2A/2G/2:||


